X:1394
T:Polska efter Lasse i Svarven
S:Östergötland
S:Efter Helén Erikkson
S:Efter Lasse i Svarven
Z:[[http://www.bluerose.karenlmyers.org/IncipitsPolskaNarke4.html|Karen Myers (#2951)]]
Z:Upptecknad 6/2007
M:3/4
L:1/8
R:Polska
O:Östergötland
K:G
(Bc) (dc) B>A | (GA) B2 B>B | (Bc) (dc) B>A | (FG) A2 A>A |
(AB) (cB) A>f | (fg) (ag) f>f | (fe) (dc) B>A |1 G2 G2- GB/B/ :|2 G2 G2- GG,- ||
|: B,>D D2 D2 | C>E E2 E2 | D2 (DF) A>c | (Bc) (BA) G>D |
B,>D D2 D2 | C>E E2 E2 | (DF) (Ac) B>A |1 G2 G2- GG,- :|2 G2 G4 |]
(:musicend:)

(:music:)
